libs/ui/packages/crypto-icons/src/svg/POLY.svg

<svg width="24" height="24" viewBox="0 0 24 24" fill="none">
<path d="M20.25 8.07225L20.217 7.542L20.0535 7.98675L19.134 8.75925L18.081 8.916L17.766 8.62425L18.6893 7.3995L19.6343 7.125L18.6112 7.146L17.124 8.1825L15.7297 8.0865L13.7723 7.125L12.6157 7.34925L9.0075 10.2338L7.269 10.7715L6.5535 11.4698L5.274 11.487L4.64025 12.6195L3.75 12.8655L4.5915 12.9758L5.37375 11.961L6.58275 12.2032L6.56025 13.2892L5.9565 14.8522L5.6115 16.2983L5.24025 16.875L6.18225 16.6755L6.075 16.0845L6.876 14.496L8.418 13.8983L9.015 12.9473L10.0237 12.2422L12.0262 12.5235L14.043 11.6722L13.7017 13.0185L12.8048 13.0965L12.549 14.2005L13.3162 13.7092L14.5883 13.179L15.582 11.6797L15.645 10.971L16.179 11.5013L17.7323 12.438L18.615 12.0353L18.5632 10.056L18.3068 9.29025L19.4603 9.009L20.25 8.07225Z" fill="#4C5A95"/>
</svg>

<svg width="24" height="24" viewBox="0 0 24 24" fill="none"><path fill="#4c5a95" d="m20.25 8.072-.033-.53-.163.445-.92.772-1.053.157-.315-.292.923-1.225.945-.274-1.023.021-1.487 1.036-1.394-.096-1.958-.961-1.156.224-3.608 2.885-1.739.537-.716.699-1.279.017-.634 1.133-.89.246.841.11.783-1.015 1.209.242-.023 1.086-.603 1.563-.345 1.446-.372.577.942-.2-.107-.59.801-1.589 1.542-.598.597-.95 1.009-.706 2.002.281 2.017-.85-.341 1.345-.897.079-.256 1.104.767-.492 1.272-.53.994-1.5.063-.708.534.53 1.553.937.883-.403-.052-1.979-.256-.766 1.153-.281z"/></svg>
